src/pos-icons/newspaper-variant-multiple.svg

<svg height="24" viewBox="0 0 24 24" width="24" xmlns="http://www.w3.org/2000/svg"><path d="m4 7v12h15v2h-15c-2 0-2-2-2-2v-12zm2-4v12c0 2 2 2 2 2h13c2 0 2-2 2-2v-12zm7 9h-4v-6h4zm7 0h-5v-2h5zm0-4h-5v-2h5z"/></svg>

<?xml version="1.0" encoding="UTF-8"?><!DOCTYPE svg PUBLIC "-//W3C//DTD SVG 1.1//EN" "http://www.w3.org/Graphics/SVG/1.1/DTD/svg11.dtd"><svg xmlns="http://www.w3.org/2000/svg" xmlns:xlink="http://www.w3.org/1999/xlink" version="1.1" id="mdi-newspaper-variant-multiple" width="24" height="24" viewBox="0 0 24 24"><path d="M4 7V19H19V21H4C2 21 2 19 2 19V7H4M6 3V15C6 17 8 17 8 17H21C23 17 23 15 23 15V3H6M13 12H9V6H13V12M20 12H15V10H20V12M20 8H15V6H20V8Z" /></svg>
